!!!SOCIAL_FUNCTION:	deer dance songs
!!!PDT:	1932
!!!OTL: No_90_The_Rising_Sun.krn
!!!REG: Southwest
!!!LANG: Non-Tone
!!!LING_GROUP: Yuman-Cochimi
**kern
*staff1
=1-
=
*clefF4
*k[b-]
*M2/4
8c\L
8c\J
8A\L
8A\J
=2
8A\L
8G\J
8F\
8r
=3
16c\LK
8c\
16c\Jk
8.A\L
16A\Jk
=4
8A\L
8G\J
8F\
8r
=5||
*M3/4
8.D\L
16D\Jk
8D\L
8G\J
16F\LL
16F\JJ
8r
=6||
*M2/4
16F\LK
8F\
16F\Jk
8F\L
8F\J
=7
2F\
=8:|!
2r
=9
8A\L
8A\J
8.A\L
16A\Jk
=10
8c\L
8c\J
8.A\L
16A\Jk
=11
8A\L
8A\J
8G\L
[8F\J
=12
4F\]
4C/
=13
2r
=14
16c\LK
8A\
16A\Jk
8A\L
8A\J
=15
4G\
8.G\L
16F\Jk
=16
8F\L
8D\J
8E\
8r
=17||
*M3/4
16F\LK
8F\
16F\Jk
8A\L
8G\J
16F\LL
[16F\J
8F\J]
=18||
*M2/4
16F\LK
8F\
16F\Jk
8F\L
8F\J
=19
4F\
4r
==
*-
